src/dsmComponents/Icons/device-mobile-sync-24px.svg

<?xml version="1.0" encoding="UTF-8"?>
<svg width="20px" height="24px" viewBox="0 0 20 24" version="1.1" xmlns="http://www.w3.org/2000/svg" xmlns:xlink="http://www.w3.org/1999/xlink">
    <!-- Generator: Sketch 59.1 (86144) - https://sketch.com -->
    <title>device-mobile-sync-24px</title>
    <desc>Created with Sketch.</desc>
    <defs>
        <path d="M18.0055598,19.4706053 L19.9998489,19.7614116 C19.6614241,22.004349 17.8287933,23.7357654 15.5444258,23.9728845 C14.0910121,24.1249986 12.6572391,23.6298821 11.6011724,22.6694754 L10.2474731,23.875949 L10.2157458,19.5302578 L14.592606,20.0134438 L13.1029325,21.33624 C13.7223708,21.8328478 14.5246189,22.0804061 15.3329103,21.9968924 C16.7047395,21.8537262 17.8046201,20.8142798 18.0055598,19.4706053 Z M12.0866005,9.09494702e-13 C13.7560622,9.09494702e-13 15.1082506,1.33621801 15.1082506,2.98262948 L15.1082506,2.98262948 L15.1082506,11.3474139 C14.3286649,11.3474139 13.5823173,11.4816322 12.876762,11.7068207 L12.876762,11.7068207 L12.876762,3.79539602 C12.876762,2.97219028 12.1999124,2.30408127 11.3659369,2.30408127 L11.3659369,2.30408127 L3.80274668,2.30408127 C2.96877125,2.30408127 2.29192162,2.97219028 2.29192162,3.79539602 L2.29192162,3.79539602 L2.29192162,20.132749 C2.29192162,20.9574461 2.96877125,21.6240637 3.80274668,21.6240637 L3.80274668,21.6240637 L8.38810074,21.6240637 L8.38810074,23.8610359 L3.02165012,23.8610359 C1.35369926,23.8610359 0,22.5248178 0,20.8784064 L0,20.8784064 L0,2.98262948 C0,1.33621801 1.35369926,9.09494702e-13 3.02165012,9.09494702e-13 L3.02165012,9.09494702e-13 Z M8.38840291,18.6414343 L8.38840291,20.132749 L5.28818988,20.132749 C4.87120216,20.132749 4.53277735,19.7986945 4.53277735,19.3870916 C4.53277735,18.9754888 4.87120216,18.6414343 5.28818988,18.6414343 L5.28818988,18.6414343 L8.38840291,18.6414343 Z M18.6130626,14.4007317 L19.9682727,13.1957494 L20,17.5414405 L15.6231398,17.0582545 L17.1128133,15.7354584 C16.4918642,15.2373592 15.6911269,14.989801 14.8828355,15.0748059 C13.5110064,15.2179721 12.4111257,16.2574185 12.2086752,17.6010931 L10.2158969,17.3102867 C10.5543217,15.0673494 12.3869525,13.3359329 14.6698092,13.0973226 C16.1247337,12.9466998 17.5585067,13.440325 18.6130626,14.4007317 Z" id="path-1"></path>
    </defs>
    <g id="Final" stroke="none" stroke-width="1" fill="none" fill-rule="evenodd">
        <g id="All-Nucleo-Icons" transform="translate(-610.000000, -2333.000000)">
            <g id="Solo/Nucleo/24px/device-mobile-sync" transform="translate(608.000000, 2333.000000)">
                <g id="p-sync-copy" transform="translate(2.000000, 0.000000)">
                    <mask id="mask-2" fill="white">
                        <use xlink:href="#path-1"></use>
                    </mask>
                    <g id="p-sync"></g>
                    <g id="colour/neutral/chia" mask="url(#mask-2)" fill="#737373">
                        <g transform="translate(-22.000000, -20.000000)" id="Colour">
                            <rect x="0" y="0" width="64" height="64"></rect>
                        </g>
                    </g>
                </g>
            </g>
        </g>
    </g>
</svg>

<svg width="20" height="24" xmlns="http://www.w3.org/2000/svg" xmlns:xlink="http://www.w3.org/1999/xlink"><defs><path d="M18.006 19.47l1.994.291c-.339 2.243-2.171 3.975-4.456 4.212a5.09 5.09 0 01-3.943-1.304l-1.354 1.207-.031-4.346 4.377.483-1.49 1.323a3.07 3.07 0 002.23.66c1.372-.142 2.472-1.182 2.673-2.525zM12.086 0c1.67 0 3.022 1.336 3.022 2.983v8.364c-.78 0-1.526.135-2.231.36V3.795a1.5 1.5 0 00-1.511-1.49H3.803a1.5 1.5 0 00-1.511 1.49v16.338a1.5 1.5 0 001.51 1.491h4.586v2.237H3.022C1.354 23.861 0 22.525 0 20.878V2.983C0 1.336 1.354 0 3.022 0zM8.389 18.641v1.492h-3.1a.75.75 0 01-.755-.746.75.75 0 01.755-.746h3.1zm10.225-4.24l1.355-1.205L20 17.54l-4.377-.483 1.49-1.323a3.06 3.06 0 00-2.23-.66c-1.372.143-2.472 1.182-2.674 2.526l-1.993-.29c.338-2.244 2.171-3.975 4.454-4.214a5.091 5.091 0 013.943 1.304z" id="device-mobile-sync-24px_svg__a"/></defs><use fill="#737373" xlink:href="#device-mobile-sync-24px_svg__a" fill-rule="evenodd"/></svg>
